X: 1
L: 1/4
K: C
C ^C D ^D | E F ^F G | ^G A ^A B | c^c=cz |
c B _B A | _A G _G F | E _E D _D | C_C=Cz |
